X: 7843
T:Sonderh\o{}ning
R:Sonderh\o{}ning
O:Denmark
M:2/4
A:Fan\o{}
K:D
e2d2 f2ff | a2a2 agfe | d2dd e2f2 | g4 f4 |\
e2d2 f2ff | a2a2 agfe | defg a2e2 | d4 d4:|
|:\
g2gg g2b2 | b2a2 a3f  | g2ge c2e2 | a4 agfe | \
  d4 f2ff | a2a2 agfe | defg a2e2 | d4 d4 :|
